icons/task-fill.svg

<svg xmlns="http://www.w3.org/2000/svg" width="24" height="24" fill="none"><g clip-path="url(#a)"><g><path fill="#121212" d="M21 2.992V21.008C20.9979 21.2706 20.8926 21.5219 20.7068 21.7075C20.521 21.8931 20.2696 21.9982 20.007 22H3.993C3.72981 22 3.47739 21.8955 3.2912 21.7095C3.105 21.5235 3.00027 21.2712 3 21.008V2.992C3.00209 2.72938 3.10742 2.47813 3.29322 2.29251C3.47902 2.1069 3.73038 2.00183 3.993 2H20.007C20.555 2 21 2.444 21 2.992ZM11.293 13.122L8.818 10.646L7.404 12.061L11.293 15.95L16.95 10.293L15.536 8.879L11.293 13.121V13.122Z"/></g></g><defs><clipPath id="a"><rect width="24" height="24" fill="white"/></clipPath></defs></svg>

<svg width="24" height="24" fill="none" xmlns="http://www.w3.org/2000/svg"><g clip-path="url(#a)"><path d="M21 2.992v18.016a1 1 0 0 1-.993.992H3.993A.993.993 0 0 1 3 21.008V2.992A1 1 0 0 1 3.993 2h16.014c.548 0 .993.444.993.992Zm-9.707 10.13-2.475-2.476-1.414 1.415 3.889 3.889 5.657-5.657-1.414-1.414-4.243 4.242v.001Z" /></g><defs><clipPath id="a"><path fill="#fff" d="M0 0h24v24H0z"/></clipPath></defs></svg>
